Newaita-dark/apps/48/ipython.svg

<svg height="48pt" viewBox="0 0 48 48" width="48pt" xmlns="http://www.w3.org/2000/svg" xmlns:xlink="http://www.w3.org/1999/xlink"><linearGradient id="a" gradientUnits="userSpaceOnUse" x1="23.81478" x2="23.81478" y1="42.0509015" y2="44.03546750005"><stop offset="0" stop-opacity=".27451"/><stop offset="1" stop-opacity="0"/></linearGradient><linearGradient id="b"><stop offset="0" stop-opacity=".313725"/><stop offset=".222222" stop-opacity=".27451"/><stop offset="1" stop-opacity="0"/></linearGradient><radialGradient id="c" cx="450.908936" cy="189.579361" gradientTransform="matrix(.00000026 -.117199 -.210958 -.00000015 80.180537 95.392996)" gradientUnits="userSpaceOnUse" r="21.166656" xlink:href="#b"/><radialGradient id="d" cx="450.908936" cy="189.579361" gradientTransform="matrix(-.00000026 .117199 .210958 .00000015 -32.550992 -11.291221)" gradientUnits="userSpaceOnUse" r="21.166656" xlink:href="#b"/><radialGradient id="e" cx="450.908936" cy="189.579361" gradientTransform="matrix(-.00000026 -.117199 .210958 -.00000015 -32.550992 95.392996)" gradientUnits="userSpaceOnUse" r="21.166656" xlink:href="#b"/><radialGradient id="f" cx="450.908936" cy="189.579361" gradientTransform="matrix(.00000026 .117199 -.210958 .00000015 80.180534 -11.291222)" gradientUnits="userSpaceOnUse" r="21.166656" xlink:href="#b"/><linearGradient id="g" gradientTransform="matrix(.113024 0 0 .326118 -8.78102 50.462022)" gradientUnits="userSpaceOnUse" x1="306.916656" x2="305.954559" y1="-25.791676" y2="-135.329163"><stop offset="0" stop-color="#424242"/><stop offset="1" stop-color="#616161"/></linearGradient><linearGradient id="h"><stop offset="0" stop-color="#42a5f5"/><stop offset="1" stop-color="#64b5f6"/></linearGradient><linearGradient id="i" gradientUnits="userSpaceOnUse" x1="279.99998925459" x2="279.99998925459" xlink:href="#h" y1="1735.118177" y2="215.11803998163"/><linearGradient id="j" gradientUnits="userSpaceOnUse" x1="433.916643" x2="433.916643" xlink:href="#h" y1="11.249994" y2="-20.500007"/><linearGradient id="k" gradientUnits="userSpaceOnUse" x1="433.916643" x2="433.916643" xlink:href="#h" y1="106.499991" y2="74.749991"/><linearGradient id="l" gradientUnits="userSpaceOnUse" x1="201.083336" x2="201.083336" xlink:href="#h" y1="159.416655" y2="-73.416673"/><linearGradient id="m" gradientUnits="userSpaceOnUse" x1="370.416643" x2="370.416643" xlink:href="#h" y1="159.416655" y2="-73.416673"/><linearGradient id="n" gradientUnits="userSpaceOnUse" x1="285.749667" x2="285.749667" y1="127.66625718561" y2="-31.08355895395"><stop offset="0" stop-color="#e0e0e0"/><stop offset="1" stop-color="#eee"/></linearGradient><path d="m6.945312 42.050781h33.738282v1.984375h-33.738282zm0 0" fill="url(#a)"/><path d="m40.683594 42.050781h3.96875v-1.984375h-3.96875zm0 0" fill="url(#c)"/><path d="m6.945312 42.050781h-3.96875v1.984375h3.96875zm0 0" fill="url(#d)"/><path d="m6.945312 42.050781h-3.96875v-1.984375h3.96875zm0 0" fill="url(#e)"/><path d="m40.683594 42.050781h3.96875v1.984375h-3.96875zm0 0" fill="url(#f)"/><path d="m4.960938 6.328125h37.707031c1.097656 0 1.984375.890625 1.984375 1.984375v31.753906c0 1.097656-.886719 1.984375-1.984375 1.984375h-37.707031c-1.09375 0-1.984376-.886719-1.984376-1.984375v-31.753906c0-1.09375.890626-1.984375 1.984376-1.984375zm0 0" fill="url(#g)"/><path d="m199.980913 255.093763c-44.247745 0-79.992365 35.74462-79.992365 79.992366v1280.03531c0 44.247745 35.74462 79.992365 79.992365 79.992365h319.969462v-1440.020041zm0 0" fill="url(#i)" stroke="#212121" stroke-linecap="round" stroke-linejoin="round" stroke-width="11.338583" transform="scale(.0248071)"/><path d="m4.960938 42.070312c-1.097657 0-1.984376-.886718-1.984376-1.984374v-.515626c0 1.097657.886719 1.984376 1.984376 1.984376h37.707031c1.101562 0 1.984375-.886719 1.984375-1.984376v.515626c0 1.097656-.882813 1.984374-1.984375 1.984374zm0 0" fill-opacity=".235294"/><path d="m4.960938 6.441406c-1.097657 0-1.984376.886719-1.984376 1.988282v.515624c0-1.101562.886719-1.984374 1.984376-1.984374h37.707031c1.101562 0 1.984375.882812 1.984375 1.984374v-.515624c0-1.101563-.882813-1.988282-1.984375-1.988282zm0 0" fill="#fff" fill-opacity=".392157"/><path d="m4.960938 6.1875c-1.175782 0-2.125.949219-2.125 2.125v31.753906c0 1.175782.949218 2.125 2.125 2.125h37.707031c1.175781 0 2.125-.949218 2.125-2.125v-31.753906c0-1.175781-.949219-2.125-2.125-2.125zm0 .28125h37.707031c1.023437 0 1.84375.820312 1.84375 1.84375v31.753906c0 1.023438-.820313 1.84375-1.84375 1.84375h-37.707031c-1.023438 0-1.84375-.820312-1.84375-1.84375v-31.753906c0-1.023438.820312-1.84375 1.84375-1.84375zm0 0" fill="#212121"/><g stroke="#212121" stroke-linecap="round" stroke-linejoin="round" stroke-width="3"><path d="m439.208058-20.518572c8.749164 0 15.873484 7.12432 15.873484 15.873484 0 8.790827-7.12432 15.915147-15.873484 15.915147-8.749165 0-15.873484-7.12432-15.873484-15.915147 0-8.749164 7.124319-15.873484 15.873484-15.873484zm0 0" fill="url(#j)" transform="matrix(.093759 0 0 .093759 0 20.158175)"/><path d="m439.208058 74.763996c8.749164 0 15.873484 7.082657 15.873484 15.873484 0 8.749164-7.12432 15.873484-15.873484 15.873484-8.749165 0-15.873484-7.12432-15.873484-15.873484 0-8.790827 7.124319-15.873484 15.873484-15.873484zm0 0" fill="url(#k)" transform="matrix(.093759 0 0 .093759 0 20.158175)"/><path d="m194.856392-73.430186c-4.082943 0-7.74926 1.749833-10.457335 4.541233-2.7914 2.666412-4.49957 6.332729-4.49957 10.415672v202.938954c0 4.082943 1.70817 7.74926 4.49957 10.457334 2.708075 2.791401 6.374392 4.499571 10.457335 4.499571h37.996372c8.790827 0 15.873484-6.66603 15.873484-14.956905v-1.833159c0-8.290874-7.082657-14.956905-15.873484-14.956905h-21.206309v-169.358827h21.206309c8.790827 0 15.873484-6.66603 15.873484-14.915242v-1.874821c0-8.290875-7.082657-14.956905-15.873484-14.956905zm0 0" fill="url(#l)" transform="matrix(.093759 0 0 .093759 0 20.158175)"/><path d="m349.258314-73.430186c-8.790827 0-15.873484 6.66603-15.873484 14.956905v1.874821c0 8.249212 7.082657 14.915242 15.873484 14.915242h21.164646v169.358827h-21.164646c-8.790827 0-15.873484 6.666031-15.873484 14.956905v1.833159c0 8.290875 7.082657 14.956905 15.873484 14.956905h37.954709c4.082943 0 7.74926-1.70817 10.457335-4.499571 2.7914-2.708074 4.49957-6.374391 4.49957-10.457334v-202.938954c0-4.041281-1.70817-7.74926-4.49957-10.415672-2.666412-2.7914-6.374392-4.541233-10.457335-4.541233zm0 0" fill="url(#m)" transform="matrix(.093759 0 0 .093759 0 20.158175)"/><path d="m250.851045-25.934721c-.166651 0-.333302 0-.499952 0-3.041377.041662-6.124415.999904-8.83249 2.874725-7.165983 5.041185-8.915815 14.915242-3.87463 22.122887l39.329577 56.161304-32.621884 46.578885c-5.041186 7.207645-3.291353 17.04004 3.87463 22.081225l.083325.041663c7.207645 5.041185 17.081702 3.333015 22.122887-3.87463l84.658582-120.946784c4.582896-6.541042 3.582992-15.248544-2.041471-20.581368-.583278-.541615-1.249881-1.08323-1.916484-1.583182-7.207645-5.041185-17.081702-3.291352-22.122887 3.916293l-32.663548 46.66221-32.70521-46.66221c-3.041376-4.374583-7.874248-6.707693-12.790445-6.791018zm0 0" fill="url(#n)" transform="matrix(.093759 0 0 .093759 0 20.158175)"/></g></svg>

<?xml version="1.0" encoding="UTF-8"?>
<svg xmlns="http://www.w3.org/2000/svg" xmlns:xlink="http://www.w3.org/1999/xlink" width="48pt" height="48pt" viewBox="0 0 48 48" version="1.1">
<defs>
<linearGradient id="linear0" gradientUnits="userSpaceOnUse" x1="254" y1="233.5" x2="254" y2="254.666672" gradientTransform="matrix(0.093759,0,0,0.093759,-0.00000572259,20.158175)">
<stop offset="0" style="stop-color:rgb(0%,0%,0%);stop-opacity:0.27451;"/>
<stop offset="1" style="stop-color:rgb(0%,0%,0%);stop-opacity:0;"/>
</linearGradient>
<radialGradient id="radial0" gradientUnits="userSpaceOnUse" cx="450.908936" cy="189.579361" fx="450.908936" fy="189.579361" r="21.166656" gradientTransform="matrix(0.000000261256,-0.117199,-0.210958,-0.000000152308,80.180537,95.392996)">
<stop offset="0" style="stop-color:rgb(0%,0%,0%);stop-opacity:0.313725;"/>
<stop offset="0.222222" style="stop-color:rgb(0%,0%,0%);stop-opacity:0.27451;"/>
<stop offset="1" style="stop-color:rgb(0%,0%,0%);stop-opacity:0;"/>
</radialGradient>
<radialGradient id="radial1" gradientUnits="userSpaceOnUse" cx="450.908936" cy="189.579361" fx="450.908936" fy="189.579361" r="21.166656" gradientTransform="matrix(-0.000000261256,0.117199,0.210958,0.000000152308,-32.550992,-11.291221)">
<stop offset="0" style="stop-color:rgb(0%,0%,0%);stop-opacity:0.313725;"/>
<stop offset="0.222222" style="stop-color:rgb(0%,0%,0%);stop-opacity:0.27451;"/>
<stop offset="1" style="stop-color:rgb(0%,0%,0%);stop-opacity:0;"/>
</radialGradient>
<radialGradient id="radial2" gradientUnits="userSpaceOnUse" cx="450.908936" cy="189.579361" fx="450.908936" fy="189.579361" r="21.166656" gradientTransform="matrix(-0.000000261256,-0.117199,0.210958,-0.000000152308,-32.550992,95.392996)">
<stop offset="0" style="stop-color:rgb(0%,0%,0%);stop-opacity:0.313725;"/>
<stop offset="0.222222" style="stop-color:rgb(0%,0%,0%);stop-opacity:0.27451;"/>
<stop offset="1" style="stop-color:rgb(0%,0%,0%);stop-opacity:0;"/>
</radialGradient>
<radialGradient id="radial3" gradientUnits="userSpaceOnUse" cx="450.908936" cy="189.579361" fx="450.908936" fy="189.579361" r="21.166656" gradientTransform="matrix(0.000000261256,0.117199,-0.210958,0.000000152308,80.180534,-11.291222)">
<stop offset="0" style="stop-color:rgb(0%,0%,0%);stop-opacity:0.313725;"/>
<stop offset="0.222222" style="stop-color:rgb(0%,0%,0%);stop-opacity:0.27451;"/>
<stop offset="1" style="stop-color:rgb(0%,0%,0%);stop-opacity:0;"/>
</radialGradient>
<linearGradient id="linear1" gradientUnits="userSpaceOnUse" x1="306.916656" y1="-25.791676" x2="305.954559" y2="-135.329163" gradientTransform="matrix(0.113024,0,0,0.326118,-8.78102,50.462022)">
<stop offset="0" style="stop-color:rgb(25.882353%,25.882353%,25.882353%);stop-opacity:1;"/>
<stop offset="1" style="stop-color:rgb(38.039216%,38.039216%,38.039216%);stop-opacity:1;"/>
</linearGradient>
<linearGradient id="linear2" gradientUnits="userSpaceOnUse" x1="84.666664" y1="233.5" x2="84.666664" y2="-168.666656" gradientTransform="matrix(3.779528,0,0,3.779528,-40.000038,852.598389)">
<stop offset="0" style="stop-color:rgb(25.882353%,64.705882%,96.078431%);stop-opacity:1;"/>
<stop offset="1" style="stop-color:rgb(39.215686%,70.980392%,96.470588%);stop-opacity:1;"/>
</linearGradient>
<linearGradient id="linear3" gradientUnits="userSpaceOnUse" x1="402.166656" y1="0.666667" x2="402.166656" y2="-31.083334" gradientTransform="matrix(1,0,0,1,31.749987,10.583327)">
<stop offset="0" style="stop-color:rgb(25.882353%,64.705882%,96.078431%);stop-opacity:1;"/>
<stop offset="1" style="stop-color:rgb(39.215686%,70.980392%,96.470588%);stop-opacity:1;"/>
</linearGradient>
<linearGradient id="linear4" gradientUnits="userSpaceOnUse" x1="402.166656" y1="95.916664" x2="402.166656" y2="64.166664" gradientTransform="matrix(1,0,0,1,31.749987,10.583327)">
<stop offset="0" style="stop-color:rgb(25.882353%,64.705882%,96.078431%);stop-opacity:1;"/>
<stop offset="1" style="stop-color:rgb(39.215686%,70.980392%,96.470588%);stop-opacity:1;"/>
</linearGradient>
<linearGradient id="linear5" gradientUnits="userSpaceOnUse" x1="158.75" y1="148.833328" x2="158.75" y2="-84" gradientTransform="matrix(1,0,0,1,42.333336,10.583327)">
<stop offset="0" style="stop-color:rgb(25.882353%,64.705882%,96.078431%);stop-opacity:1;"/>
<stop offset="1" style="stop-color:rgb(39.215686%,70.980392%,96.470588%);stop-opacity:1;"/>
</linearGradient>
<linearGradient id="linear6" gradientUnits="userSpaceOnUse" x1="338.666656" y1="148.833328" x2="338.666656" y2="-84" gradientTransform="matrix(1,0,0,1,31.749987,10.583327)">
<stop offset="0" style="stop-color:rgb(25.882353%,64.705882%,96.078431%);stop-opacity:1;"/>
<stop offset="1" style="stop-color:rgb(39.215686%,70.980392%,96.470588%);stop-opacity:1;"/>
</linearGradient>
<linearGradient id="linear7" gradientUnits="userSpaceOnUse" x1="960" y1="1255.118164" x2="960" y2="655.118103" gradientTransform="matrix(0.264583,0,0,0.264583,31.749987,-204.416672)">
<stop offset="0" style="stop-color:rgb(87.843137%,87.843137%,87.843137%);stop-opacity:1;"/>
<stop offset="1" style="stop-color:rgb(93.333333%,93.333333%,93.333333%);stop-opacity:1;"/>
</linearGradient>
</defs>
<g id="surface1">
<path style=" stroke:none;fill-rule:nonzero;fill:url(#linear0);" d="M 6.945312 42.050781 L 40.683594 42.050781 L 40.683594 44.035156 L 6.945312 44.035156 Z M 6.945312 42.050781 "/>
<path style=" stroke:none;fill-rule:nonzero;fill:url(#radial0);" d="M 40.683594 42.050781 L 44.652344 42.050781 L 44.652344 40.066406 L 40.683594 40.066406 Z M 40.683594 42.050781 "/>
<path style=" stroke:none;fill-rule:nonzero;fill:url(#radial1);" d="M 6.945312 42.050781 L 2.976562 42.050781 L 2.976562 44.035156 L 6.945312 44.035156 Z M 6.945312 42.050781 "/>
<path style=" stroke:none;fill-rule:nonzero;fill:url(#radial2);" d="M 6.945312 42.050781 L 2.976562 42.050781 L 2.976562 40.066406 L 6.945312 40.066406 Z M 6.945312 42.050781 "/>
<path style=" stroke:none;fill-rule:nonzero;fill:url(#radial3);" d="M 40.683594 42.050781 L 44.652344 42.050781 L 44.652344 44.035156 L 40.683594 44.035156 Z M 40.683594 42.050781 "/>
<path style=" stroke:none;fill-rule:nonzero;fill:url(#linear1);" d="M 4.960938 6.328125 L 42.667969 6.328125 C 43.765625 6.328125 44.652344 7.21875 44.652344 8.3125 L 44.652344 40.066406 C 44.652344 41.164062 43.765625 42.050781 42.667969 42.050781 L 4.960938 42.050781 C 3.867188 42.050781 2.976562 41.164062 2.976562 40.066406 L 2.976562 8.3125 C 2.976562 7.21875 3.867188 6.328125 4.960938 6.328125 Z M 4.960938 6.328125 "/>
<path style="fill-rule:nonzero;fill:url(#linear2);stroke-width:11.338583;stroke-linecap:round;stroke-linejoin:round;stroke:rgb(12.941177%,12.941177%,12.941177%);stroke-opacity:1;stroke-miterlimit:4;" d="M 199.980913 255.093763 C 155.733168 255.093763 119.988548 290.838383 119.988548 335.086129 L 119.988548 1615.121439 C 119.988548 1659.369184 155.733168 1695.113804 199.980913 1695.113804 L 519.950375 1695.113804 L 519.950375 255.093763 Z M 199.980913 255.093763 " transform="matrix(0.0248071,0,0,0.0248071,0,0)"/>
<path style=" stroke:none;fill-rule:nonzero;fill:rgb(0%,0%,0%);fill-opacity:0.235294;" d="M 4.960938 42.070312 C 3.863281 42.070312 2.976562 41.183594 2.976562 40.085938 L 2.976562 39.570312 C 2.976562 40.667969 3.863281 41.554688 4.960938 41.554688 L 42.667969 41.554688 C 43.769531 41.554688 44.652344 40.667969 44.652344 39.570312 L 44.652344 40.085938 C 44.652344 41.183594 43.769531 42.070312 42.667969 42.070312 Z M 4.960938 42.070312 "/>
<path style=" stroke:none;fill-rule:nonzero;fill:rgb(100%,100%,100%);fill-opacity:0.392157;" d="M 4.960938 6.441406 C 3.863281 6.441406 2.976562 7.328125 2.976562 8.429688 L 2.976562 8.945312 C 2.976562 7.84375 3.863281 6.960938 4.960938 6.960938 L 42.667969 6.960938 C 43.769531 6.960938 44.652344 7.84375 44.652344 8.945312 L 44.652344 8.429688 C 44.652344 7.328125 43.769531 6.441406 42.667969 6.441406 Z M 4.960938 6.441406 "/>
<path style=" stroke:none;fill-rule:nonzero;fill:rgb(12.941177%,12.941177%,12.941177%);fill-opacity:1;" d="M 4.960938 6.1875 C 3.785156 6.1875 2.835938 7.136719 2.835938 8.3125 L 2.835938 40.066406 C 2.835938 41.242188 3.785156 42.191406 4.960938 42.191406 L 42.667969 42.191406 C 43.84375 42.191406 44.792969 41.242188 44.792969 40.066406 L 44.792969 8.3125 C 44.792969 7.136719 43.84375 6.1875 42.667969 6.1875 Z M 4.960938 6.46875 L 42.667969 6.46875 C 43.691406 6.46875 44.511719 7.289062 44.511719 8.3125 L 44.511719 40.066406 C 44.511719 41.089844 43.691406 41.910156 42.667969 41.910156 L 4.960938 41.910156 C 3.9375 41.910156 3.117188 41.089844 3.117188 40.066406 L 3.117188 8.3125 C 3.117188 7.289062 3.9375 6.46875 4.960938 6.46875 Z M 4.960938 6.46875 "/>
<path style="fill-rule:nonzero;fill:url(#linear3);stroke-width:3;stroke-linecap:round;stroke-linejoin:round;stroke:rgb(12.941177%,12.941177%,12.941177%);stroke-opacity:1;stroke-miterlimit:4;" d="M 439.208058 -20.518572 C 447.957222 -20.518572 455.081542 -13.394252 455.081542 -4.645088 C 455.081542 4.145739 447.957222 11.270059 439.208058 11.270059 C 430.458893 11.270059 423.334574 4.145739 423.334574 -4.645088 C 423.334574 -13.394252 430.458893 -20.518572 439.208058 -20.518572 Z M 439.208058 -20.518572 " transform="matrix(0.093759,0,0,0.093759,0,20.158175)"/>
<path style="fill-rule:nonzero;fill:url(#linear4);stroke-width:3;stroke-linecap:round;stroke-linejoin:round;stroke:rgb(12.941177%,12.941177%,12.941177%);stroke-opacity:1;stroke-miterlimit:4;" d="M 439.208058 74.763996 C 447.957222 74.763996 455.081542 81.846653 455.081542 90.63748 C 455.081542 99.386644 447.957222 106.510964 439.208058 106.510964 C 430.458893 106.510964 423.334574 99.386644 423.334574 90.63748 C 423.334574 81.846653 430.458893 74.763996 439.208058 74.763996 Z M 439.208058 74.763996 " transform="matrix(0.093759,0,0,0.093759,0,20.158175)"/>
<path style="fill-rule:nonzero;fill:url(#linear5);stroke-width:3;stroke-linecap:round;stroke-linejoin:round;stroke:rgb(12.941177%,12.941177%,12.941177%);stroke-opacity:1;stroke-miterlimit:4;" d="M 194.856392 -73.430186 C 190.773449 -73.430186 187.107132 -71.680353 184.399057 -68.888953 C 181.607657 -66.222541 179.899487 -62.556224 179.899487 -58.473281 L 179.899487 144.465673 C 179.899487 148.548616 181.607657 152.214933 184.399057 154.923007 C 187.107132 157.714408 190.773449 159.422578 194.856392 159.422578 L 232.852764 159.422578 C 241.643591 159.422578 248.726248 152.756548 248.726248 144.465673 L 248.726248 142.632514 C 248.726248 134.34164 241.643591 127.675609 232.852764 127.675609 L 211.646455 127.675609 L 211.646455 -41.683218 L 232.852764 -41.683218 C 241.643591 -41.683218 248.726248 -48.349248 248.726248 -56.59846 L 248.726248 -58.473281 C 248.726248 -66.764156 241.643591 -73.430186 232.852764 -73.430186 Z M 194.856392 -73.430186 " transform="matrix(0.093759,0,0,0.093759,0,20.158175)"/>
<path style="fill-rule:nonzero;fill:url(#linear6);stroke-width:3;stroke-linecap:round;stroke-linejoin:round;stroke:rgb(12.941177%,12.941177%,12.941177%);stroke-opacity:1;stroke-miterlimit:4;" d="M 349.258314 -73.430186 C 340.467487 -73.430186 333.38483 -66.764156 333.38483 -58.473281 L 333.38483 -56.59846 C 333.38483 -48.349248 340.467487 -41.683218 349.258314 -41.683218 L 370.42296 -41.683218 L 370.42296 127.675609 L 349.258314 127.675609 C 340.467487 127.675609 333.38483 134.34164 333.38483 142.632514 L 333.38483 144.465673 C 333.38483 152.756548 340.467487 159.422578 349.258314 159.422578 L 387.213023 159.422578 C 391.295966 159.422578 394.962283 157.714408 397.670358 154.923007 C 400.461758 152.214933 402.169928 148.548616 402.169928 144.465673 L 402.169928 -58.473281 C 402.169928 -62.514562 400.461758 -66.222541 397.670358 -68.888953 C 395.003946 -71.680353 391.295966 -73.430186 387.213023 -73.430186 Z M 349.258314 -73.430186 " transform="matrix(0.093759,0,0,0.093759,0,20.158175)"/>
<path style="fill-rule:nonzero;fill:url(#linear7);stroke-width:3;stroke-linecap:round;stroke-linejoin:round;stroke:rgb(12.941177%,12.941177%,12.941177%);stroke-opacity:1;stroke-miterlimit:4;" d="M 250.851045 -25.934721 C 250.684394 -25.934721 250.517743 -25.934721 250.351093 -25.934721 C 247.309716 -25.893059 244.226678 -24.934817 241.518603 -23.059996 C 234.35262 -18.018811 232.602788 -8.144754 237.643973 -0.937109 L 276.97355 55.224195 L 244.351666 101.80308 C 239.31048 109.010725 241.060313 118.84312 248.226296 123.884305 L 248.309621 123.925968 C 255.517266 128.967153 265.391323 127.258983 270.432508 120.051338 L 355.09109 -0.895446 C 359.673986 -7.436488 358.674082 -16.14399 353.049619 -21.476814 C 352.466341 -22.018429 351.799738 -22.560044 351.133135 -23.059996 C 343.92549 -28.101181 334.051433 -26.351348 329.010248 -19.143703 L 296.3467 27.518507 L 263.64149 -19.143703 C 260.600114 -23.518286 255.767242 -25.851396 250.851045 -25.934721 Z M 250.851045 -25.934721 " transform="matrix(0.093759,0,0,0.093759,0,20.158175)"/>
</g>
</svg>
